assets/icons/instagram.svg

<svg width="18" height="18" viewBox="0 0 18 18" fill="none" xmlns="http://www.w3.org/2000/svg">
    <path d="M9.92538 0.00110732C10.5821 -0.0014128 11.2389 0.00518768 11.8954 0.0209067L12.07 0.0272065C12.2716 0.0344062 12.4705 0.0434059 12.7108 0.0542055C13.6684 0.099204 14.3217 0.250399 14.895 0.472691C15.489 0.701284 15.9894 1.01087 16.4898 1.51126C16.9473 1.96089 17.3014 2.50477 17.5274 3.1051C17.7497 3.67838 17.9009 4.33266 17.9459 5.29023C17.9567 5.52962 17.9657 5.72941 17.9729 5.93101L17.9783 6.1056C17.9943 6.76185 18.0012 7.41829 17.999 8.07473L17.9999 8.74611V9.92507C18.0021 10.5818 17.9952 11.2386 17.9792 11.8951L17.9738 12.0697C17.9666 12.2713 17.9576 12.4702 17.9468 12.7105C17.9018 13.668 17.7488 14.3214 17.5274 14.8947C17.3021 15.4957 16.9479 16.04 16.4898 16.4894C16.0397 16.9469 15.4956 17.301 14.895 17.5271C14.3217 17.7494 13.6684 17.9006 12.7108 17.9456C12.4705 17.9564 12.2716 17.9654 12.07 17.9726L11.8954 17.978C11.2389 17.994 10.5821 18.0009 9.92538 17.9987L9.254 17.9996H8.07594C7.4192 18.0018 6.76246 17.9949 6.10591 17.9789L5.93132 17.9735C5.71767 17.9658 5.50408 17.9568 5.29054 17.9465C4.33297 17.9015 3.67959 17.7485 3.10541 17.5271C2.50485 17.3015 1.96087 16.9474 1.51157 16.4894C1.05352 16.0397 0.699097 15.4955 0.473003 14.8947C0.250711 14.3214 0.0995159 13.668 0.0545174 12.7105C0.0444944 12.4969 0.0354946 12.2833 0.0275183 12.0697L0.0230186 11.8951C0.00642639 11.2386 -0.00107416 10.5818 0.000519283 9.92507V8.07473C-0.0019925 7.41829 0.00460798 6.76185 0.0203187 6.1056L0.0266184 5.93101C0.0338182 5.72941 0.0428179 5.52962 0.0536175 5.29023C0.098616 4.33176 0.249811 3.67928 0.472103 3.1051C0.698331 2.50448 1.05345 1.96074 1.51247 1.51216C1.96146 1.05385 2.5051 0.699099 3.10541 0.472691C3.67959 0.250399 4.33207 0.099204 5.29054 0.0542055L5.93132 0.0272065L6.10591 0.0227067C6.76215 0.00612283 7.41859 -0.00137772 8.07504 0.000207414L9.92538 0.00110732ZM9.00021 4.50095C8.40399 4.49252 7.81203 4.60267 7.25875 4.825C6.70547 5.04734 6.20189 5.37742 5.77728 5.79606C5.35268 6.2147 5.01551 6.71356 4.78538 7.26365C4.55524 7.81373 4.43673 8.40407 4.43673 9.00035C4.43673 9.59663 4.55524 10.187 4.78538 10.7371C5.01551 11.2871 5.35268 11.786 5.77728 12.2046C6.20189 12.6233 6.70547 12.9534 7.25875 13.1757C7.81203 13.398 8.40399 13.5082 9.00021 13.4997C10.1936 13.4997 11.3382 13.0257 12.1821 12.1818C13.026 11.3379 13.5001 10.1933 13.5001 8.9999C13.5001 7.80647 13.026 6.66191 12.1821 5.81803C11.3382 4.97414 10.1936 4.50095 9.00021 4.50095ZM9.00021 6.30089C9.35886 6.29428 9.71522 6.35921 10.0485 6.49187C10.3818 6.62454 10.6853 6.82228 10.9412 7.07356C11.1972 7.32483 11.4006 7.6246 11.5394 7.95534C11.6783 8.28609 11.7498 8.64119 11.7499 8.99989C11.7499 9.3586 11.6785 9.71372 11.5398 10.0445C11.401 10.3753 11.1978 10.6751 10.9419 10.9265C10.686 11.1779 10.3826 11.3757 10.0493 11.5085C9.7161 11.6413 9.35976 11.7063 9.00111 11.6998C8.28505 11.6998 7.59832 11.4154 7.09199 10.909C6.58566 10.4027 6.30121 9.71596 6.30121 8.9999C6.30121 8.28384 6.58566 7.59711 7.09199 7.09078C7.59832 6.58445 8.28505 6.29999 9.00111 6.29999L9.00021 6.30089ZM13.7251 3.151C13.4347 3.16262 13.1601 3.28613 12.9588 3.49566C12.7575 3.70519 12.6451 3.98449 12.6451 4.27506C12.6451 4.56563 12.7575 4.84493 12.9588 5.05446C13.1601 5.26399 13.4347 5.3875 13.7251 5.39912C14.0234 5.39912 14.3096 5.2806 14.5205 5.06963C14.7315 4.85866 14.85 4.57252 14.85 4.27416C14.85 3.9758 14.7315 3.68967 14.5205 3.47869C14.3096 3.26772 14.0234 3.1492 13.7251 3.1492V3.151Z" fill="#414042"/>
    </svg>

<?xml version="1.0" encoding="utf-8"?>
<!-- Generator: Adobe Illustrator 27.9.0, SVG Export Plug-In . SVG Version: 6.00 Build 0)  -->
<svg version="1.1" id="Layer_1" xmlns="http://www.w3.org/2000/svg" xmlns:xlink="http://www.w3.org/1999/xlink" x="0px" y="0px"
	 viewBox="0 0 18 18" style="enable-background:new 0 0 18 18;" xml:space="preserve">
<style type="text/css">
	.st0{fill:#414042;}
</style>
<path class="st0" d="M9.9,0c0.7,0,1.3,0,2,0l0.2,0c0.2,0,0.4,0,0.6,0c1,0,1.6,0.2,2.2,0.4c0.6,0.2,1.1,0.5,1.6,1
	c0.5,0.4,0.8,1,1,1.6c0.2,0.6,0.4,1.2,0.4,2.2c0,0.2,0,0.4,0,0.6l0,0.2c0,0.7,0,1.3,0,2l0,0.7v1.2c0,0.7,0,1.3,0,2l0,0.2
	c0,0.2,0,0.4,0,0.6c0,1-0.2,1.6-0.4,2.2c-0.2,0.6-0.6,1.1-1,1.6c-0.5,0.5-1,0.8-1.6,1c-0.6,0.2-1.2,0.4-2.2,0.4c-0.2,0-0.4,0-0.6,0
	l-0.2,0c-0.7,0-1.3,0-2,0l-0.7,0H8.1c-0.7,0-1.3,0-2,0l-0.2,0c-0.2,0-0.4,0-0.6,0c-1,0-1.6-0.2-2.2-0.4c-0.6-0.2-1.1-0.6-1.6-1
	c-0.5-0.4-0.8-1-1-1.6c-0.2-0.6-0.4-1.2-0.4-2.2c0-0.2,0-0.4,0-0.6l0-0.2c0-0.7,0-1.3,0-2V8.1c0-0.7,0-1.3,0-2l0-0.2
	c0-0.2,0-0.4,0-0.6c0-1,0.2-1.6,0.4-2.2c0.2-0.6,0.6-1.1,1-1.6c0.4-0.5,1-0.8,1.6-1c0.6-0.2,1.2-0.4,2.2-0.4l0.6,0l0.2,0
	c0.7,0,1.3,0,2,0L9.9,0z M9,4.5c-0.6,0-1.2,0.1-1.7,0.3C6.7,5,6.2,5.4,5.8,5.8C5.4,6.2,5,6.7,4.8,7.3C4.6,7.8,4.4,8.4,4.4,9
	s0.1,1.2,0.3,1.7c0.2,0.6,0.6,1,1,1.5c0.4,0.4,0.9,0.7,1.5,1c0.6,0.2,1.1,0.3,1.7,0.3c1.2,0,2.3-0.5,3.2-1.3c0.8-0.8,1.3-2,1.3-3.2
	c0-1.2-0.5-2.3-1.3-3.2C11.3,5,10.2,4.5,9,4.5z M9,6.3c0.4,0,0.7,0.1,1,0.2c0.3,0.1,0.6,0.3,0.9,0.6c0.3,0.3,0.5,0.6,0.6,0.9
	c0.1,0.3,0.2,0.7,0.2,1c0,0.4-0.1,0.7-0.2,1c-0.1,0.3-0.3,0.6-0.6,0.9c-0.3,0.3-0.6,0.4-0.9,0.6c-0.3,0.1-0.7,0.2-1,0.2
	c-0.7,0-1.4-0.3-1.9-0.8C6.6,10.4,6.3,9.7,6.3,9s0.3-1.4,0.8-1.9S8.3,6.3,9,6.3L9,6.3z M13.7,3.2c-0.3,0-0.6,0.1-0.8,0.3
	c-0.2,0.2-0.3,0.5-0.3,0.8c0,0.3,0.1,0.6,0.3,0.8c0.2,0.2,0.5,0.3,0.8,0.3c0.3,0,0.6-0.1,0.8-0.3c0.2-0.2,0.3-0.5,0.3-0.8
	s-0.1-0.6-0.3-0.8C14.3,3.3,14,3.1,13.7,3.2L13.7,3.2z"/>
</svg>
